dist/img/linkedin.svg

<svg width="21" height="20" viewBox="0 0 21 20" fill="none" xmlns="http://www.w3.org/2000/svg">
<path d="M5.40263 6.94824H1.53351C1.3618 6.94824 1.22266 7.08744 1.22266 7.2591V19.6889C1.22266 19.8606 1.3618 19.9998 1.53351 19.9998H5.40263C5.57435 19.9998 5.71349 19.8606 5.71349 19.6889V7.2591C5.71349 7.08744 5.57435 6.94824 5.40263 6.94824Z" fill="#707070"/>
<path d="M3.4694 0.769043C2.06158 0.769043 0.91626 1.91312 0.91626 3.31938C0.91626 4.72626 2.06158 5.87078 3.4694 5.87078C4.87609 5.87078 6.02048 4.7262 6.02048 3.31938C6.02054 1.91312 4.87609 0.769043 3.4694 0.769043Z" fill="#707070"/>
<path d="M15.2439 6.63965C13.6899 6.63965 12.5412 7.30768 11.8444 8.06673V7.25944C11.8444 7.08778 11.7053 6.94858 11.5336 6.94858H7.82819C7.65647 6.94858 7.51733 7.08778 7.51733 7.25944V19.6893C7.51733 19.861 7.65647 20.0001 7.82819 20.0001H11.6889C11.8606 20.0001 11.9997 19.861 11.9997 19.6893V13.5394C11.9997 11.467 12.5626 10.6597 14.0072 10.6597C15.5805 10.6597 15.7056 11.9539 15.7056 13.646V19.6893C15.7056 19.861 15.8447 20.0002 16.0164 20.0002H19.8785C20.0502 20.0002 20.1894 19.861 20.1894 19.6893V12.8713C20.1894 9.78982 19.6018 6.63965 15.2439 6.63965Z" fill="#707070"/>
</svg>

<svg width="21" height="20" fill="none" xmlns="http://www.w3.org/2000/svg"><path d="M5.403 6.948h-3.87a.31.31 0 00-.31.311v12.43c0 .172.139.31.31.31h3.87a.31.31 0 00.31-.31V7.259a.31.31 0 00-.31-.31zM3.47.769a2.555 2.555 0 00-2.554 2.55A2.555 2.555 0 003.47 5.871a2.554 2.554 0 002.55-2.552A2.554 2.554 0 003.47.77zM15.244 6.64c-1.554 0-2.703.668-3.4 1.427v-.808a.31.31 0 00-.31-.31H7.828a.31.31 0 00-.31.31v12.43a.31.31 0 00.31.311h3.86a.31.31 0 00.312-.31v-6.15c0-2.073.563-2.88 2.007-2.88 1.574 0 1.699 1.294 1.699 2.986v6.043a.31.31 0 00.31.311h3.863a.31.31 0 00.31-.31v-6.82c0-3.081-.587-6.231-4.945-6.231z" fill="#707070"/></svg>
